storage/app/icons/phosphoricons/duotone/note-duotone.svg

<svg xmlns="http://www.w3.org/2000/svg" fill="currentColor" viewBox="0 0 256 256"><path d="m216 160-56 56v-56Z" opacity=".2"/><path d="M88 96a8 8 0 0 1 8-8h64a8 8 0 0 1 0 16H96a8 8 0 0 1-8-8m8 40h64a8 8 0 0 0 0-16H96a8 8 0 0 0 0 16m32 16H96a8 8 0 0 0 0 16h32a8 8 0 0 0 0-16m96-104v108.69a15.86 15.86 0 0 1-4.69 11.31L168 219.31a15.86 15.86 0 0 1-11.31 4.69H48a16 16 0 0 1-16-16V48a16 16 0 0 1 16-16h160a16 16 0 0 1 16 16M48 208h104v-48a8 8 0 0 1 8-8h48V48H48Zm120-40v28.7l28.69-28.7Z"/></svg>

<svg xmlns="http://www.w3.org/2000/svg" viewBox="0 0 256 256" fill="currentColor"><path d="M216,160l-56,56V160Z" opacity="0.2"/><path d="M88,96a8,8,0,0,1,8-8h64a8,8,0,0,1,0,16H96A8,8,0,0,1,88,96Zm8,40h64a8,8,0,0,0,0-16H96a8,8,0,0,0,0,16Zm32,16H96a8,8,0,0,0,0,16h32a8,8,0,0,0,0-16ZM224,48V156.69A15.86,15.86,0,0,1,219.31,168L168,219.31A15.86,15.86,0,0,1,156.69,224H48a16,16,0,0,1-16-16V48A16,16,0,0,1,48,32H208A16,16,0,0,1,224,48ZM48,208H152V160a8,8,0,0,1,8-8h48V48H48Zm120-40v28.7L196.69,168Z"/></svg>
